codepen/tile-w.svg

<?xml version="1.0" encoding="UTF-8" standalone="no"?>
<svg
   xmlns:dc="http://purl.org/dc/elements/1.1/"
   xmlns:cc="http://creativecommons.org/ns#"
   xmlns:rdf="http://www.w3.org/1999/02/22-rdf-syntax-ns#"
   xmlns:svg="http://www.w3.org/2000/svg"
   xmlns="http://www.w3.org/2000/svg"
   width="111.211"
   height="124.284"
   viewBox="0 0 111.211 124.284"
   id="svg7096"
   version="1.1">
  <defs
     id="defs7098" />
  <metadata
     id="metadata7101">
    <rdf:RDF>
      <cc:Work
         rdf:about="">
        <dc:format>image/svg+xml</dc:format>
        <dc:type
           rdf:resource="http://purl.org/dc/dcmitype/StillImage" />
        <dc:title></dc:title>
      </cc:Work>
    </rdf:RDF>
  </metadata>
  <path
     id="path10126"
     d="m 21.400391,29.691406 0,22.203125 15.701171,15.701172 -15.701171,15.701172 0,22.203125 22.203125,0 L 59.304688,89.798828 75.005859,105.5 l 22.203125,0 0,-22.203125 -15.701172,-15.701172 15.701172,-15.701172 0,-22.203125 -22.203125,0 -15.701171,15.701172 -15.701172,-15.701172 -22.203125,0 z"
     style="fill:#ffffff;fill-opacity:1;fill-rule:evenodd;stroke:none;stroke-width:1px;stroke-linecap:butt;stroke-linejoin:miter;stroke-opacity:1" />
</svg>

<?xml version="1.0" encoding="UTF-8" standalone="no"?>
<!-- Created with Inkscape (http://www.inkscape.org/) -->

<svg
   xmlns:dc="http://purl.org/dc/elements/1.1/"
   xmlns:cc="http://creativecommons.org/ns#"
   xmlns:rdf="http://www.w3.org/1999/02/22-rdf-syntax-ns#"
   xmlns:svg="http://www.w3.org/2000/svg"
   xmlns="http://www.w3.org/2000/svg"
   xmlns:sodipodi="http://sodipodi.sourceforge.net/DTD/sodipodi-0.dtd"
   xmlns:inkscape="http://www.inkscape.org/namespaces/inkscape"
   width="111.211"
   height="124.284"
   viewBox="0 0 111.211 124.284"
   id="svg7096"
   version="1.1"
   inkscape:version="0.91 r13725"
   sodipodi:docname="tile-w.svg">
  <defs
     id="defs7098" />
  <sodipodi:namedview
     id="base"
     pagecolor="#ffffff"
     bordercolor="#666666"
     borderopacity="1.0"
     inkscape:pageopacity="0.0"
     inkscape:pageshadow="2"
     inkscape:zoom="5.6"
     inkscape:cx="63.40414"
     inkscape:cy="60.268308"
     inkscape:document-units="px"
     inkscape:current-layer="layer1"
     showgrid="false"
     units="px"
     inkscape:snap-bbox="true"
     inkscape:bbox-paths="true"
     inkscape:bbox-nodes="true"
     inkscape:snap-bbox-edge-midpoints="true"
     inkscape:snap-bbox-midpoints="true"
     inkscape:snap-page="true"
     inkscape:window-width="1679"
     inkscape:window-height="926"
     inkscape:window-x="24"
     inkscape:window-y="42"
     inkscape:window-maximized="0"
     inkscape:snap-intersection-paths="true"
     inkscape:object-nodes="true" />
  <metadata
     id="metadata7101">
    <rdf:RDF>
      <cc:Work
         rdf:about="">
        <dc:format>image/svg+xml</dc:format>
        <dc:type
           rdf:resource="http://purl.org/dc/dcmitype/StillImage" />
        <dc:title></dc:title>
      </cc:Work>
    </rdf:RDF>
  </metadata>
  <g
     inkscape:label="Layer 1"
     inkscape:groupmode="layer"
     id="layer1"
     transform="translate(0,-928.07816)">
    <path
       style="fill:#ffffff;fill-opacity:1;fill-rule:evenodd;stroke:none;stroke-width:1px;stroke-linecap:butt;stroke-linejoin:miter;stroke-opacity:1"
       d="M 21.400391 29.691406 L 21.400391 51.894531 L 37.101562 67.595703 L 21.400391 83.296875 L 21.400391 105.5 L 43.603516 105.5 L 59.304688 89.798828 L 75.005859 105.5 L 97.208984 105.5 L 97.208984 83.296875 L 81.507812 67.595703 L 97.208984 51.894531 L 97.208984 29.691406 L 75.005859 29.691406 L 59.304688 45.392578 L 43.603516 29.691406 L 21.400391 29.691406 z "
       transform="translate(0,928.07816)"
       id="path10126" />
  </g>
</svg>
